modules/material-icons/icons/ungroup.svg

<svg xmlns="http://www.w3.org/2000/svg" width="24" height="24"><path d="M2 2h4v1h7V2h4v4h-1v3h2V8h4v4h-1v6h1v4h-4v-1h-6v1H8v-4h1v-2H6v1H2v-4h1V6H2V2m16 10v-1h-2v2h1v4h-4v-1h-2v2h1v1h6v-1h1v-6h-1m-5-6V5H6v1H5v7h1v1h3v-2H8V8h4v1h2V6h-1m-1 6h-1v2h2v-1h1v-2h-2v1z"/></svg>

<?xml version="1.0" encoding="UTF-8"?><!DOCTYPE svg PUBLIC "-//W3C//DTD SVG 1.1//EN" "http://www.w3.org/Graphics/SVG/1.1/DTD/svg11.dtd"><svg xmlns="http://www.w3.org/2000/svg" xmlns:xlink="http://www.w3.org/1999/xlink" version="1.1" width="24" height="24" viewBox="0 0 24 24"><path d="M2,2H6V3H13V2H17V6H16V9H18V8H22V12H21V18H22V22H18V21H12V22H8V18H9V16H6V17H2V13H3V6H2V2M18,12V11H16V13H17V17H13V16H11V18H12V19H18V18H19V12H18M13,6V5H6V6H5V13H6V14H9V12H8V8H12V9H14V6H13M12,12H11V14H13V13H14V11H12V12Z" /></svg>
